X:1
T:Star in the East
T:Star in the East
T:Traditional 
T:1854
C:Traditional
Z:1854
L:1/8
M:4/4
K:G
V:1 treble nm="Piano" snm="Pno."
V:1
|: E4 E2 F2 | E4 B,2 B,2 | D4 D2 E2 | (D2 C2) B,4 | E4 G2 E2 | F4 B,2 A,2 | B,4 D2 D2 | E8 :| %8
w: 1  Hail the blest|morn, see the|great Me- di|a- * tor.|Down from the|re- gions of|glo- ry de-|scend.|
w: Shep- herds go|wor- ship the|babe in the|man- * ger.|Lo, for his|guard the bright|an- gels at-|tend.|
w: 2.  Cold on his|cra- dle the|dew drops are|shin- * ing.|Low lies his|bed with the|beasts of the|stall.|
w: An- gels a|dore him in|slum- bers re-|clin- * ing.|Wise men and|shep- herds be-|fore him do|fall.|
 E4 G2 A2 | B4 A2 G2 | (A3 G) A2 B2 | G4 E4 | E4 G2 A2 | B4 A2 G2 | (A3 G) A2 G2 | F8 | B4 B2 G2 | %17
w: Bright- est and|best of the|sons _ of the|mor- ning!|Dawn on our|dark- ness, and|lend _ us thine|aid.|Star in the|
w: |||||||||
w: |||||||||
w: |||||||||
 E4 B,2 B,2 | D4 D2 E2 | (D2 C2) B,4 | E4 G2 E2 | F4 B,2 A,2 | B,4 D2 D2 | E8 |] %24
w: east, the ho-|ri- zon a-|dor- * ning.|Guide where our|in- fant Re-|deem- er was|laid.|
w: |||||||
w: |||||||
w: |||||||

